packages/ffe-icons/icons/open/400/sm/sort.svg

<svg xmlns="http://www.w3.org/2000/svg" height="20" viewBox="0 -960 960 960" width="20"><path d="M180-264q-15.3 0-25.65-10.289-10.35-10.29-10.35-25.5Q144-315 154.35-325.5 164.7-336 180-336h168q15.3 0 25.65 10.289 10.35 10.29 10.35 25.5Q384-285 373.65-274.5 363.3-264 348-264H180Zm.289-180Q165-444 154.5-454.289q-10.5-10.29-10.5-25.5Q144-495 154.342-505.5q10.343-10.5 25.632-10.5h359.737Q555-516 565.5-505.711q10.5 10.29 10.5 25.5Q576-465 565.658-454.5 555.315-444 540.026-444H180.289ZM180-624q-15.3 0-25.65-10.289-10.35-10.29-10.35-25.5Q144-675 154.35-685.5 164.7-696 180-696h600q15.3 0 25.65 10.289 10.35 10.29 10.35 25.5Q816-645 805.65-634.5 795.3-624 780-624H180Z"/></svg>

<svg xmlns="http://www.w3.org/2000/svg" height="20" viewBox="0 -960 960 960" width="20"><path d="M180-264q-15.3 0-25.65-10.29Q144-284.58 144-299.79t10.35-25.71Q164.7-336 180-336h168q15.3 0 25.65 10.29Q384-315.42 384-300.21t-10.35 25.71Q363.3-264 348-264H180Zm.29-180q-15.29 0-25.79-10.29t-10.5-25.5q0-15.21 10.34-25.71t25.63-10.5h359.74q15.29 0 25.79 10.29t10.5 25.5q0 15.21-10.34 25.71T540.03-444H180.29ZM180-624q-15.3 0-25.65-10.29Q144-644.58 144-659.79t10.35-25.71Q164.7-696 180-696h600q15.3 0 25.65 10.29Q816-675.42 816-660.21t-10.35 25.71Q795.3-624 780-624H180Z"/></svg>
